!!!!SEGMENT: pl-wtm--r-2188_troschel-wilhelm--mazurek-b-dur.krn
!!!cenid: 18xx:2247
!!!COM: Troschel, Wilhelm
!!!COM-rismid: pe30024099
!!!CDT: 1823/08/23-1887/03/02
!!!CNT: Polish
!!!OTL: Mazurek B-dur
!!!PDT:
!!!AGN: Secular; Mazurka
!!!SMS-siglum: PL-Wtm
!!!SMS-shelfmark: R 2188
!!!SMS-shelfwork: W
!!!SMS-variant:
!!!SMS-altvar:
!!!NIFC-rismid: 1001113728
!!!URL-scan: http://repozytorium.nifc.pl/skany/pl-wtm-nut--r2188
!!!ONB-nifc:
!!!AIN: 1 piano
!!!key:
**kern	**kern
*part1	*part1
*staff2	*staff1
*Ipiano	*Ipiano
*I"[Piano]	*I"[Piano]
*clefF4	*clefG2
*k[b-e-]	*k[b-e-]
*B-:	*B-:
*M3/8	*M3/8
*>[A,A,B,B,C,D,D,E]	*>[A,A,B,B,C,D,D,E]
=1	=1
*>A	*>A
*all\right	*all\right
*2\right	*2\right
!	!LO:TX:a:i:t=Mazure
.	8qdd/
16.ALL 16.F\	16.ccLL 16.e-/
32G#XK 32F\	32bnK 32d/
16A 16F\	16cc 16e-/
16FF\	16ff/
16.A 16.F\	16.cc 16.e-/
32AJJk 32F\	32ddJJk 32f/
=2	=2
16.ALL 16.F\	16.b-LL 16.d/
32BB-\K	32ff/K
16c\	16a 16e-/
16F\J	16ff/J
8B-J 8F 8BB-\	8b-J 8d/
=3	=3
.	8qee-/
16.BnLL 16.G\	16.ddLL 16.f/
32A#XK 32G\	32cc#XK 32en/
16B 16G\	16dd 16f/
16GG\	16gg/
16.B 16.G\	16.dd 16.f/
32BJJk 32G\	32ee-XJJk 32g/
=4	=4
16.cLL 16.G\	16.ccLL 16.e-/
32C\K	32gg/K
16d\	16bn 16f/
16G\J	16gg/J
8cJ 8G 8C\	8ccJ 8e-/
=5	=5
*	*^
8F 8FF/	16gg/LL	8ee- 8a\
.	16ff/JJ	.
4f: 4e-: 4A:^^<\	8ddd:^^>/L	4ee-:\
.	8ccc/J	.
=6	=6	=6
8BB- 8BBB-/	16gg/LL	8dd 8b-\
.	16ff/JJ	.
*clefG2	*	*
4b-: 4f: 4B-:/	8ccc:/L	4ff: 4dd:\
.	8bb-/J	.
*clefF4	*	*
=7	=7	=7
8C 8CC/	16dd/LL	8b- 8en\
.	16cc/JJ	.
4en: 4c: 4B-: 4G:\	8aa:/L	4b-:\
.	8gg/J	.
=8	=8	=8
8FF 8FFF/	16g/LL	8e- 8A\
.	16f/JJ	.
4e-: 4A: 4F:\	8ee-L 8g/	4ryy
.	8ddJ 8f/	.
*	*v	*v
!!LO:LB:g=original
=9	=9
.	4qqdd/
16.ALL 16.F\	16.ccLL 16.e-/
32G#XK 32F\	32bnK 32d/
16A 16F\	16cc 16e-/
16FF\	16ff/
16.A 16.F\	16.cc 16.e-/
32AJJk 32F\	32ddJJk 32f/
=10	=10
16.ALL 16.F\	16.b-LL 16.d/
32BB-\K	32ff/K
16c\	16a 16e-/
16F\J	16ff/J
8B-J 8F 8BB-\	8b-J 8d/
=11	=11
.	8qqee-/
16.BnLL 16.G\	16.ddLL 16.f/
32A#XK 32G\	32cc#XK 32en/
16B 16G\	16dd 16f/
16GG\	16gg/
16.B 16.G\	16.dd 16.f/
32BJJk 32G\	32ee-XJJk 32g/
=12	=12
16.cLL 16.G\	16.ccLL 16.e-/
32C\K	32gg/K
16d\	16bn 16f/
16G\J	16gg/J
8cJ 8G 8C\	8ccJ 8e-/
=13	=13
!	!LO:TUP:a:problem=klamra łukowa
8EnL 8EEn\	24bb-LL 24dd-X 24b-\
.	24bb- 24dd- 24b-\
.	24bb-JJ 24dd- 24b-\
8g 8en 8B-\	8cccL 8cc\
8gJ 8e 8B-\	8ccc#XJ 8cc#X\
=14	=14
!	!LO:TUP:a:problem=klamra łukowa
8FL 8FF\	24dddnLL 24ff 24ddn\
.	24ddd 24ff 24dd\
.	24dddJJ 24ff 24dd\
8f 8B-\	8bb-L 8dd 8b-\
8g-XJ 8e-\	8gg-XJ 8b-\
=15	=15
*	*^
*Xtuplet	*	*
!	!LO:TUP:a:problem=klamra łukowa	!LO:TUP:b:problem=klamra łukowa
24f\LL	24cc/LL	24a\
24f\	24cc/	12a\
24e-\JJ	24gg/JJ	.
*tuplet	*	*
8d\L	8ffL 8b-/	8ryy
8e-J 8c 8F\	8aJ 8f/	8ryy
*	*v	*v
=16	=16
8dL 8B-\	8b-L 8f/
8BB-\J	8bb-/J
8r	8r
!!LO:LB:g=original
=17:|!	=17:|!
*>B	*>B
8FF/	16cc/LL
.	16a/J
4A 4C^^<\	8f/
.	16g/L
.	16a/JJ
=18	=18
8FF/	16b-\LL
.	16cc\JJ
.	16qqdd-X/LL
.	16qqee-/JJ
4B- 4D-X^^<\	8dd-y\L
.	8b-\J
=19	=19
16EnLL 16EEn/	16eenLL 16en/
16FJ 16FF/	16ffJ 16f/
8FF 8FFF^^</	8f 8F^^>/
16EL 16EE/	16gL 16G/
16E-XJJ 16EE-X/	16aJJ 16A/
=20	=20
16D-XLL 16DD-X/	16b-LL 16B-/
16AAn 16AAAn/	16cc 16c/
16BB- 16BBB-/	16dd-X 16d-X/
16GG-XJ 16GGG-X/	16ee-J 16b- 16e-/
8FFJ 8FFF/	8ffJ 8a 8f/
=21	=21
8FF\L	16cc/LL
.	16a/J
8A 8C\	8f/
8AJ 8C\	16g/L
.	16a/JJ
=22	=22
8FF\L	16b-\LL
.	16cc\
.	16qqdd-X/LL
.	16qqee-/JJ
8A 8D-X\	16dd-y\
.	16cc\
8AJ 8D-\	16dd-\
.	16b-\JJ
=23	=23
16.E-LL 16.EE-/	16.gg-XLL 16.cc 16.b-/
32FJJk 32FF/	(>32ffJJk 32cc 32b-/
8G-XL 8GG-X/	8ee-L 8b-/
!	!LO:TX:t=P:problem=nieczytelne słowo
8EnJ 8EEn/	8ggnJ 8dd-X 8b-/
=24	=24
8F 8FF/	16.ffLL 16.a/
.	32ffJJk 32f/)
8r	8ffL 8f/
8r	8ffJ 8f/
!!LO:LB:g=original
=25:|!	=25:|!
*>C	*>C
16.E-LL 16.EE-/	(>16.gg-XLL 16.cc 16.b-\
!	!LO:TX:a:i:t=sur
32FK 32FF/	32ffK 32cc 32b-\
16G-X 16GG-X/	16ee- 16cc 16b-\
16En 16EEn/	16ggn 16cc 16b-\
16F 16FF/	16ff 16cc 16b-\)
16GnJJ 16GGn/	16eenJJ 16cc 16b-\
=26	=26
8F 8FF/	8ffL 8cc 8a/
8r	16ggL 16b-/
.	16ff 16a/
8r	16ee- 16g/
.	16ddJJ 16f/
=27	=27
.	8qqdd/
16.ALL 16.F\	16.ccLL 16.e-/
32G#XK 32F\	32bnK 32d/
16A 16F\	16cc 16e-/
16FF\	16ff/
16.A 16.F\	16.cc 16.e-/
32AJJk 32F\	32ddJJk 32f/
=28	=28
16.ALL 16.F\	16.b-LL 16.d/
32BB-\K	32ff/K
16c\	16a 16e-/
16F\J	16ff/J
8B-J 8F 8BB-\	8b-J 8d/
=29	=29
.	8qqee-/
16.BnLL 16.G\	16.ddLL 16.f/
32A#XK 32G\	32cc#XK 32en/
16B 16G\	16dd 16f/
16GG\	16gg/
16.B 16.G\	16.dd 16.f/
32BJJk 32G\	32ee-XJJk 32g/
=30	=30
16.cLL 16.G\	16.ccLL 16.e-/
32C\K	32gg/K
16d\	16bn 16f/
16G\J	16gg/J
8cJ 8G 8C\	8ccJ 8e-/
=31	=31
*	*^
8F 8FF/	16gg/LL	8ee- 8a\
.	16ff/JJ	.
4f: 4e-: 4A:\	8ddd:/L	4ee-:\
.	8ccc/J	.
=32	=32	=32
8BB- 8BBB-/	16gg/LL	8dd 8b-\
.	16ff/JJ	.
*clefG2	*	*
4b-: 4f: 4B-:/	8ccc:/L	4ff: 4dd:\
.	8bb-/J	.
!!LO:LB:g=original
=33	=33	=33
*clefF4	*	*
8C 8CC/	16dd/LL	8b- 8en\
.	16cc/JJ	.
4en: 4c: 4B-: 4G:\	8aa:/L	4b-:\
.	8gg/J	.
=34	=34	=34
8FF 8FFF/	16g/LL	8e- 8A\
.	16f/JJ	.
4e- 4A 4F\	8ee-L 8g/	4ryy
.	8ddJ 8f/	.
*	*v	*v
=35	=35
.	8qqdd/
16.ALL 16.F\	16.ccLL 16.e-/
32G#XK 32F\	32bnK 32d/
16A 16F\	16cc 16e-/
16FF\	16ff/
16.A 16.F\	16.cc 16.e-/
32AJJk 32F\	32ddJJk/
=36	=36
16.ALL 16.F\	16.b-LL 16.d/
32BB-\K	32ff/K
16c\	16a 16e-/
16F\J	16ff/J
8B-J 8F 8BB-\	8b-J 8d/
=37	=37
.	8qqee-/
16.BnLL 16.G\	16.ddLL 16.f/
32A#XK 32G\	32cc#XK 32en/
16B 16G\	16dd 16f/
16GG\	16gg/
16.B 16.G\	16.dd 16.f/
32BJJk 32G\	32ee-XJJk 32g/
=38	=38
16.cLL 16.G\	16.ccLL 16.e-/
32C\K	32gg/K
16d\	16bn 16f/
16G\J	16gg/J
8cJ 8G 8C\	8ccJ 8e-/
=39	=39
!	!LO:TUP:a:problem=klamra łukowa
8EnL 8EEn\	24bb-LL 24dd-X 24b-\
.	24bb- 24dd- 24b-\
.	24bb-JJ 24dd- 24b-\
8g 8en 8B-\	8cccL 8cc\
8gJ 8e 8B-\	8ccc#XJ 8cc#X\
=40	=40
!	!LO:TUP:a:problem=klamra łukowa
8FL 8FF\	24dddnLL 24ff 24ddn\
.	24ddd 24ff 24dd\
.	24dddJJ 24ff 24dd\
8f 8B-\	8bb-L 8dd 8b-\
8g-XJ 8e-\	8gg-XJ 8b-\
=41	=41
*	*^
!LO:TUP:b:problem=klamra łukowa	!LO:TUP:a:problem=klamra łukowa	!LO:TUP:b:problem=klamra łukowa
24f\LL	24cc/LL	24a\
24f\	24cc/	12a\
24e-\JJ	24gg/JJ	.
8d\L	8ffL 8b-/	8ryy
8e-J 8c 8F\	8aJ 8f/	8ryy
*	*v	*v
=42	=42
8dL 8B-\	8b-L 8f/
8BB-\J	8bb-/J
8r	8r
!!LO:LB:g=original
=43||	=43||
*>D	*>D
*k[b-e-a-]	*k[b-e-a-]
!	!LO:TX:a:i:t=Trio
16r	16B-/
=44	=44
!	!LO:TX:b:i:t=dolce
*ped	*
8EE-\L	16.e-/LL
.	32d/K
8G 8E- 8BB-\	16.e-/
.	32f/K
*Xped	*
8GJ 8E- 8BB-\	16.g/
.	32a-/JJk
=45	=45
!	!LO:TUP:a:problem=klamra łukowa
8GG\L	24an/LL
.	24cc/
.	24b-/JJ
8B- 8E-\	8g/L
*Xped	*
8B-J 8E-\	8e-/J
=46	=46
8AA-/L	16.a-/LL
.	32g/K
8c 8A- 8E-/	16.a-/
.	32b-/K
8cJ 8A- 8E-/	16.cc/
.	32dd/JJk
=47	=47
!	!LO:TUP:a:problem=klamra łukowa
8EE-/	24dd\LL
.	24ff\
.	24ee-\JJ
4e- 4B- 4G\	8.b-\L
.	16bn\Jk
=48	=48
!LO:TX:t=P:problem=mixed beam	!
8BB-/L 8BBB-/	16dd\LL
.	16cc\JJ
!	!LO:TUP:a:problem=klamra łukowa
8d\ 8B-\ 8G\ 8F\	24a-\LL
.	24b-\
.	24a-\JJ
8d\J 8B-\ 8G\ 8F\	16g\LL
.	16f\JJ
=49	=49
!	!LO:TUP:a:problem=klamra łukowa
8EE-/L	24d/LL
.	24e-/
.	24g/JJ
8G 8E- 8BB-/	4B-/
8GJ 8E- 8BB-/	.
=50	=50
8FF\L	16g/LL
.	16f/JJ
!	!LO:TUP:a:problem=klamra łukowa
8E- 8AAn\	24e-/LL
.	24f/
.	24e-/JJ
8E-J 8AA\	16d/LL
.	16c/JJ
=51	=51
8BBB-/L	8.B-/L
8A- 8D 8BB-/	.
.	16a-/L
8A-J 8F 8BB-/	16c/
.	16d/JJ
=52	=52
.	16qqe-/LL
.	16qqf/JJ
8EE-\L	16.e-/LL
.	32d/K
8G 8E- 8BB-\	16.e-/
.	32f/K
8GJ 8E- 8BB-\	16.g/
.	32a-/JJk
!!LO:LB:g=original
=53	=53
*	*Xtuplet
8GG\L	24an/LL
.	24cc/
.	24b-/JJ
*	*tuplet
8B- 8E-\	8g/L
8B-J 8E-\	8e-/J
=54	=54
.	16qqa-/LL
.	16qqb-/JJ
8AA-/L	16.a-/LL
.	32g/K
8c 8A- 8E-/	16.a-/
.	32b-/K
8cJ 8A- 8E-/	16.cc/
.	32dd/JJk
=55	=55
!	!LO:TUP:a:problem=klamra łukowa
8EE-/	24dd\LL
.	24ff\
.	24ee-\JJ
4e- 4B- 4G\	8.b-\L
.	16bn\Jk
=56	=56
!LO:TX:t=P:problem=mixed beam	!
8BB-/L 8BBB-/	16dd\LL
.	16cc\JJ
!	!LO:TUP:a:problem=klamra łukowa
8d\ 8B-\ 8G\ 8F\	24a-/LL
.	24b-/
.	24a-/JJ
8d\J 8B-\ 8G\ 8F\	16g/LL
.	16f/JJ
=57	=57
!	!LO:TUP:a:problem=klamra łukowa
8EE-\L	24d/LL
.	24e-/
.	24g/JJ
8G 8E- 8BB-\	4B-/
8GJ 8E- 8BB-\	.
=58	=58
8BBB-/L	16.B-/LL
.	32c/K
8A- 8F 8BB-/	16.d/
.	32B-/K
8A-J 8D 8BB-/	16.g/
.	32f/JJk
=59	=59
8EE-/L	16.d/LL
.	32e-/K
8G 8E- 8BB-/	16.g/
.	32cc/JK
8GJ 8E- 8BB-/	8b-/J
=60	=60
8BB-L 8BBB-/	16dd/LL
.	16cc/JJ
!	!LO:TUP:a:problem=klamra łukowa
8A- 8D 8BB-/	24a-/LL
.	24b-/
.	24a-/JJ
8A-J 8D 8BB-/	16g/LL
.	16f/JJ
!!LO:LB:g=original
=61	=61
*	*Xtuplet
8G 8E-/	24d/LL
.	24e-/
.	24g/JJ
4AAn 4AAAn/	4cc^^> 4g-X 4e-/
=62	=62
8BB-L 8BBB-/	24b-LL 24f 24d/
.	24b- 24f 24d/
.	24b-JJ 24f 24d/
*	*tuplet
8A- 8F 8BB-/	8ccL 8f 8d/
8A-J 8F 8BB-/	8b-J 8d/
=63	=63
!LO:TX:t=P:problem=mixed beam	!
8G\L 8E-\	8e-/L
16EE-/Jk	16ee-Jk 16b- 16g/
16r	16r
8r	8r
=64:|!	=64:|!
*>E	*>E
!LO:TX:t=P:problem=mixed beam	!
8G\L 8E-\	8e-/L
16EE-/Jk	16ee-Jk 16b- 16g/
16r	16r
8r	8r
=65||	=65||
*k[b-e-an]	*k[b-e-an]
.	8qqdd/
16.ALL 16.F\	16.ccLL 16.e-/
32G#XK 32F\	32bnK 32d/
16A 16F\	16cc 16e-/
16FF\	16ff/
16.A 16.F\	16.cc 16.e-/
32AJJk 32F\	32ddJJk 32f/
=66	=66
16.ALL 16.F\	16.b-LL 16.d/
32BB-\K	32ff/K
16c\	16a 16e-/
16F\J	16ff/J
8B-J 8F 8BB-\	8b-J 8d/
=67	=67
.	8qqee-/
16.BnLL 16.G\	16.ddLL 16.f/
32A#XK 32G\	32cc#XK 32en/
16B 16G\	16dd 16f/
16GG\	16gg/
16.B 16.G\	16.dd 16.f/
32BJJk 32G\	32ee-XJJk 32g/
=68	=68
16.cLL 16.G\	16.ccLL 16.e-/
32C\K	32gg/K
16d\	16bn 16f/
16G\J	16gg/J
8cJ 8G 8C\	8ccJ 8e-/
!!LO:LB:g=original
=69	=69
*	*^
8F 8FF/	16gg/LL	8ee- 8a\
.	16ff/JJ	.
4f 4e- 4c 4A\	8ddd-X/L	4ee-\
.	8ccc/J	.
=70	=70	=70
8BB- 8BBB-/	16gg/LL	8dd 8b-\
.	16ff/JJ	.
*clefG2	*	*
4b- 4f 4B-/	8ccc/L	4ff 4dd\
.	8bb-/J	.
*clefF4	*	*
=71	=71	=71
8C 8CC/	16dd/LL	8b- 8en\
.	16cc/JJ	.
4en 4c 4B- 4G\	8aa/L	4b-\
.	8gg/J	.
=72	=72	=72
8FF 8FFF/	16g/LL	8e- 8A\
.	16f/JJ	.
4e- 4A 4F\	8.ee-L 8.g/	4ryy
.	16ddJk 16f/	.
*	*v	*v
=73	=73
.	8qqdd/
16.ALL 16.F\	16.ccLL 16.e-/
32G#XK 32F\	32bnK 32d/
16A 16F\	16cc 16e-/
16FF\	16ff/
16.A 16.F\	16.cc 16.e-/
32AJJk 32F\	32ddJJk 32f/
=74	=74
16.ALL 16.F\	16.b-LL 16.d/
32BB-\K	32ff/K
16c\	16a 16e-/
16F\J	16ff/J
8B-J 8F 8BB-\	8b-J 8d/
=75	=75
.	8qqee-/
16.BnLL 16.G\	16.ddLL 16.f/
32A#XK 32G\	32cc#XK 32en/
16B 16G\	16dd 16f/
16GG\	16gg/
16.B 16.G\	16.dd 16.f/
32BJJk 32G\	32ee-XJJk 32g/
=76	=76
16.cLL 16.G\	16.ccLL 16.e-/
32C\K	32gg/K
16d\	16bn 16f/
16G\J	16gg/J
8cJ 8G 8C\	8ccJ 8e-/
=77	=77
*	*Xtuplet
8EnL 8EEn\	24bb-LL 24dd-X 24b-\
.	24bb- 24dd- 24b-\
.	24bb-JJ 24dd- 24b-\
8g 8en 8B-\	8cccL 8cc\
8gJ 8e 8B-\	8ccc#XJ 8cc#X\
!!LO:LB:g=original
=78	=78
8FL 8FF/	24dddLL 24ff 24dd\
.	24ddd 24ff 24dd\
.	24dddJ 24ff 24dd\
*clefG2	*
8a-X 8f 8d 8Bn/	8.fff 8.aa-X 8.ff\
8a-J 8f 8d 8B/	.
.	16fffJk 16aa- 16ff\
*clefF4	*
=79	=79
!LO:TX:t=P:problem=mixed beam	!
8C/L 8CC/	8.fffL 8.aa-X 8.ff\
8g\ 8e-\ 8c\ 8G\	.
.	16eee-L 16gg 16ee-\
8g\J 8e-\ 8c\ 8G\	16aaa 16ccc 16aan\
.	16gggJJ 16bb- 16gg\
=80	=80
!LO:TX:t=P:problem=mixed beam	!
8FF/L 8FFF/	16fffLL 16aan 16ff\
.	16eee- 16gg 16ee-\
8e-\ 8c\ 8A\ 8F\	16ddd 16ff 16dd\
.	16ccc 16ee- 16cc\
8f\J 8c\ 8F\	16gg [>16ee- 16g\
.	16aaJJ 16ee-] 16a\
=81	=81
8fL 8B-\	8bb- 8dd 8b-\
8d\	8r
8g\J	8r
=82	=82
*	*^
*	*tuplet	*Xtuplet
!LO:TUP:b:problem=klamra łukowa	!LO:TUP:a:problem=klamra łukowa	!
24f\LL	24cc/LL	24a\
24f\	24cc/	12a\
24e-\JJ	24gg/JJ	.
8d\L	8ffL 8b-/	4ryy
8gJ 8e- 8F\	8aJ 8f/	.
*	*v	*v
=83	=83
8dL 8B-\	8b- 8f/
8D\	8r
8G\J	8r
=84	=84
*	*tuplet
!LO:TUP:b:problem=klamra łukowa	!LO:TUP:a:problem=klamra łukowa
24F\LL	24c<LL 24A</
24F\	24c< [>24A</
24E-\JJ	24gJ 24A</]
8D\L	8f 8B-</
8FJ 8C 8FF\	8A</J
=85	=85
4D 4BB-\	4B-< 4F</
8r	8r
=86	=86
!LO:TX:t=P:problem=mixed beam	!
32d\KLL 32B-\ 32F\	32bb-KLL 32ff 32dd 32b-\
16.BBB-/JJ	16.bbb-\JJ
8r	8r
8r	8r
!LO:TX:a:t=P:problem=w źródle "Fine" zapisane za ostatnim taktem	!
!LO:TX:b:i:t=Fine	!
==	==
*-	*-
!!!system-decoration: {s1,s2}
!!!RDF**kern: > = above
!!!RDF**kern: < = below
!!!EED: Antoni Szymański
!!!EST: 2021-06-06
!!!ENC: Anastazja Marusiak
!!!END: 2021-05-24
